libs/ui/packages/crypto-icons/src/svg/LEO.svg

<svg width="24" height="24" viewBox="0 0 24 24" fill="none">
<path d="M8.20389 10.8529H8.21139L8.32614 10.8964L8.44839 10.9391L8.56314 10.9826L8.68539 11.0329L8.80014 11.0764L8.92239 11.1116L9.03789 11.1551L9.15264 11.2054L9.38289 11.2916L9.50514 11.3276L9.61989 11.3779L9.74214 11.4214L9.85764 11.4641L9.97989 11.5076L10.0946 11.5504L10.2169 11.5939L10.3316 11.6366L10.4539 11.6801L10.5694 11.7304L10.6916 11.7664V10.0909H8.03814L7.92339 10.1486L7.65039 10.2926L7.36989 10.4359L7.09689 10.5799L6.82314 10.7239L6.54264 10.8679L6.26289 11.0111L5.98914 11.1551L5.71614 11.2991L5.43564 11.4424L5.16264 11.5864L4.91064 11.7229L4.88214 15.8434L5.16264 16.0376L5.43564 16.2319L5.71614 16.4186L6.26289 16.8071L6.54264 17.0006L6.66489 17.0944L6.82314 16.9001L7.09689 16.5401L7.11789 16.5049L7.09689 16.4831L6.82314 16.2889L6.54264 16.0879L6.26289 15.8936L5.98914 15.6994L5.71614 15.5059L5.63739 15.4549L5.65839 12.1264L5.71614 12.0979L5.98914 11.9614L6.26289 11.8174L6.54264 11.6876L6.82314 11.5444L7.09689 11.4071L7.36989 11.2706L7.65039 11.1341L7.92339 10.9976L8.20389 10.8529Z" fill="#11021E"/>
<path d="M12.9634 18.7181L12.7257 18.8119L12.4669 18.9124L12.2082 19.0204L11.9494 19.1209L11.8347 19.1711L11.6982 19.0999L11.4387 18.9701L11.1874 18.8404L10.9287 18.7114L10.6699 18.5816L10.4112 18.4526L10.1524 18.3229L9.89292 18.1864L9.63417 18.0641L9.38292 17.9276L9.12417 17.7979L8.87217 17.6764L8.61342 17.5391L8.58492 17.5249V14.1679H7.83717V17.9854L8.87217 18.5029L9.12417 18.6319L9.38292 18.7691L9.63417 18.8914L9.89292 19.0279L10.1524 19.1569L10.4112 19.2791L10.6699 19.4156L11.1874 19.6744L11.4387 19.8041L11.7987 19.9841L11.9494 19.9189L12.2082 19.8184L12.4669 19.7179L12.7257 19.6099L12.9844 19.5019L13.2439 19.4089L12.9844 18.7616L12.9634 18.7181ZM17.5572 14.0381L17.5722 15.6266L17.5002 15.6776L17.0614 15.9866L16.6302 16.3031L16.1914 16.6121L15.7527 16.9286L15.3072 17.2301L14.8759 17.5466L14.4372 17.8631L14.1784 18.0499L13.9984 17.9059L13.5672 17.5759L13.1284 17.2376L12.6897 16.9069L12.2584 16.5694L12.1797 16.5184V14.8084L12.2584 14.7364L12.6897 14.2759L13.1284 13.8229L13.5672 13.3631L13.9984 12.9101L14.4229 12.4646H9.19617L9.63417 12.9244L10.0662 13.3774L10.5117 13.8304L10.9504 14.2901L11.3817 14.7431L11.4387 14.8084V16.8784L11.8204 17.1731L12.2584 17.5039L12.6897 17.8421L13.1284 18.1721L13.5672 18.5104L13.9984 18.8411L14.1634 18.9709L14.4372 18.7699L14.8759 18.4601L15.3072 18.1444L15.7527 17.8346L16.1914 17.5256L16.6302 17.2166L17.0614 16.9001L17.5002 16.5911L17.9382 16.2821L18.2982 16.0159L18.3694 14.0674L17.9382 14.0531L17.5572 14.0381ZM5.59392 10.3639H5.64417L5.65167 8.25037L5.93892 8.07037L6.28392 7.86262L6.63642 7.65412L6.97392 7.43062L7.32642 7.22212L7.67142 7.00687L8.01642 6.79837L8.36142 6.58987L8.70642 6.37387L9.05892 6.16537L9.06642 6.15787L9.39717 6.35287L9.74967 6.54637L10.4397 6.94912L10.7847 7.14337L11.1372 7.33762L11.4747 7.53862L11.8129 7.72612L11.8279 7.69687L12.1729 7.07887L11.8279 6.87712L11.4754 6.68287L11.1372 6.48937L10.7847 6.29437L10.4397 6.08662L10.0947 5.89237L9.74967 5.69812L9.39717 5.50387L9.05967 5.30962L9.04467 5.30212L8.70717 5.50462L8.36217 5.71987L8.01717 5.92837L7.67217 6.14362L7.32717 6.35212L6.97467 6.56062L6.63642 6.77662L6.28392 6.98512L5.93892 7.20112L5.59392 7.41637L5.24892 7.62487L4.91142 7.83337L4.89642 10.3571H5.24892L5.59392 10.3639Z" fill="#11021E"/>
<path d="M19.1097 8.42287L18.9372 8.28637L18.7512 8.13562L18.5712 7.99162L18.3912 7.84762L18.2112 7.69762L18.0312 7.56037L17.8452 7.41637L17.6652 7.26562L17.4777 7.12162L17.3487 7.01362L17.2984 7.07137L17.1184 7.29412L16.9317 7.52437L16.8889 7.58887L16.9317 7.63912L17.1192 7.79062L17.2992 7.93387L17.4784 8.09212L17.6652 8.24362L17.8452 8.39362L18.0319 8.55262L18.2119 8.70337L18.2982 8.77537L18.3057 12.1759L18.2119 12.2336L18.0319 12.3559L17.8444 12.4639L17.6652 12.5861L17.4777 12.6934L17.2984 12.8156L17.1184 12.9236L16.9317 13.0459L16.7517 13.1539L16.5717 13.2761L16.3924 13.3841L16.2124 13.5064L16.0257 13.6136L15.8457 13.7359L15.6664 13.8439L15.4864 13.9661L15.2997 14.0741L15.4872 14.3614L15.6672 14.6561L15.7024 14.7064L15.8464 14.6134L16.0264 14.4979L16.2132 14.3906L16.3932 14.2751L16.5724 14.1604L16.7524 14.0456L16.9324 13.9376L17.1184 13.8221L17.2984 13.7149L17.4784 13.5994L17.6652 13.4846L17.8452 13.3691L18.0319 13.2619L18.2119 13.1464L18.3919 13.0391L18.5712 12.9236L18.7512 12.8089L18.9379 12.6934L19.1179 12.5861L19.1097 8.42287ZM13.1862 10.4509V11.9246L13.2439 11.9021L13.4809 11.8024L13.7254 11.7086L13.9624 11.6081L14.2069 11.5144L14.4514 11.4139L14.6884 11.3134L14.9329 11.2196L15.1774 11.1191L15.4152 11.0254L15.6589 10.9249L15.8967 10.8319V6.37387L15.6237 6.20887L15.3432 6.05062L15.0694 5.88562L14.7897 5.71987L14.5092 5.56162L14.2287 5.39662L13.9557 5.23087L13.6819 5.07337L13.4014 4.90762L13.1217 4.74262L12.8412 4.58362L12.5674 4.41862L12.2944 4.25362L12.0139 4.09462L11.8707 4.01587L11.7342 4.08037L11.4537 4.23862L11.1799 4.38262L10.9069 4.53337L10.6264 4.69162L10.3459 4.83562L10.0662 4.98637L10.3459 5.15137L10.6264 5.30962L10.7989 5.41087L10.9069 5.36062L11.1799 5.20912L11.4537 5.06587L11.7342 4.92187L11.8489 4.86412L12.0139 4.95787L12.2944 5.12287L12.8412 5.43937L13.4014 5.77012L13.6819 5.92762L14.2287 6.25912L14.5092 6.41662L15.0694 6.74812L15.1557 6.79087V10.0766H13.1929" fill="#11021E"/>
<path d="M13.1861 11.9246L15.8966 10.8318L13.1786 10.0766L13.1861 11.9246ZM10.6916 11.9246V10.1051L8.21063 10.8461L10.6916 11.9171" fill="#11021E"/>
</svg>

<svg width="24" height="24" viewBox="0 0 24 24" fill="none"><path fill="#11021e" d="M8.204 10.853h.007l.115.043.122.043.115.044.122.05.115.043.122.036.116.043.115.05.23.087.122.036.115.05.122.043.116.043.122.044.115.042.122.044.115.043.122.043.115.05.123.036v-1.675H8.038l-.115.058-.273.144-.28.143-.273.144-.274.144-.28.144-.28.143-.274.144-.273.144-.28.143-.273.144-.252.137-.029 4.12.28.195.274.194.28.187.547.388.28.194.122.093.158-.194.274-.36.02-.035-.02-.022-.274-.194-.28-.201-.28-.194-.274-.195-.273-.193-.079-.051.021-3.329.058-.028.273-.137.274-.144.28-.13.28-.143.274-.137.273-.136.28-.137.273-.136z"/><path fill="#11021e" d="m12.963 18.718-.237.094-.26.1-.258.108-.259.1-.114.051-.137-.071-.26-.13-.25-.13-.26-.129-.258-.13-.259-.128-.259-.13-.26-.137-.258-.122-.251-.136-.259-.13-.252-.122-.259-.137-.028-.014v-3.357h-.748v3.817l1.035.518.252.129.259.137.251.122.259.137.26.129.258.122.259.137.517.258.252.13.36.18.15-.065.26-.1.258-.101.259-.108.258-.108.26-.093-.26-.647zm4.594-4.68.015 1.589-.072.05-.439.31-.43.316-.44.31-.438.316-.446.301-.431.317-.439.316-.259.187-.18-.144-.43-.33-.44-.338-.438-.331-.432-.338-.078-.05v-1.71l.078-.073.432-.46.438-.453.44-.46.43-.453.425-.445H9.196l.438.46.432.452.446.453.438.46.432.453.057.065v2.07l.381.295.438.33.432.34.438.33.44.337.43.331.165.13.274-.201.439-.31.431-.316.446-.31.438-.308.44-.31.43-.316.44-.309.437-.309.36-.266.071-1.949-.43-.014zM5.594 10.364h.05l.008-2.114.287-.18.345-.207.352-.209.338-.223.352-.209.345-.215.345-.209.345-.208.345-.216.353-.209.007-.007.331.195.353.193.69.403.345.194.352.195.338.2.338.188.015-.03.345-.617-.345-.202-.353-.194-.338-.194-.352-.195-.345-.207-.345-.195-.345-.194-.353-.194-.337-.194-.015-.008-.338.203-.345.215-.345.208-.345.216-.345.208-.352.209-.339.216-.352.208-.345.216-.345.215-.345.209-.338.208-.015 2.524h.353z"/><path fill="#11021e" d="m19.11 8.423-.173-.137-.186-.15-.18-.144-.18-.144-.18-.15-.18-.138-.186-.144-.18-.15-.187-.144-.13-.108-.05.057-.18.223-.186.23-.043.065.043.05.187.152.18.143.18.158.186.152.18.15.187.159.18.15.086.072.008 3.4-.094.059-.18.122-.188.108-.179.122-.187.107-.18.123-.18.108-.186.122-.18.108-.18.122-.18.108-.18.122-.186.108-.18.122-.18.108-.18.122-.186.108.187.287.18.295.035.05.144-.093.18-.115.187-.107.18-.116.18-.115.18-.114.18-.108.185-.116.18-.107.18-.116.187-.114.18-.116.187-.107.18-.116.18-.107.18-.115.18-.115.186-.116.18-.107zm-5.924 2.028v1.474l.058-.023.237-.1.244-.093.237-.1.245-.095.244-.1.237-.1.245-.094.244-.1.238-.095.244-.1.238-.093V6.374l-.273-.165-.28-.158-.275-.165-.28-.166-.28-.158-.28-.165-.273-.166-.274-.158-.28-.165-.28-.165-.28-.16-.275-.164-.273-.165-.28-.16-.143-.078-.137.064-.28.159-.274.144-.273.15-.28.159-.281.144-.28.15.28.165.28.159.173.1.108-.05.273-.15.274-.144.28-.144.115-.058.165.094.28.165.547.316.56.331.28.158.548.331.28.158.56.331.087.043v3.286h-1.963"/><path fill="#11021e" d="m13.186 11.925 2.71-1.093-2.717-.755zm-2.494 0v-1.82l-2.481.741 2.48 1.071"/></svg>
